X:1
T:Children’s Praises, CM refrain
T:Children’s Praises, CM refrain
T:Arranged by Henry E. Matthews, 1841
T:Public Domain Courtesy of the Cyber Hymnal™
C:Arranged by Henry E. Matthews, 1841
Z:Public Domain
Z:Courtesy of the Cyber Hymnal™
%%score ( 1 2 ) ( 3 4 )
L:1/8
Q:1/4=112
M:4/4
K:G
V:1 treble 
V:2 treble 
V:3 bass 
V:4 bass 
V:1
 D2 | [DG]2 [DG]2 [DF]2 [DG]2 | [FA]2 [FA]2 [DG]2 [FA]2 | [GB]2 A2 [GB]2 [Gc]2 | [Gd]6 [Gd]2 | %5
 [Ge]2 [Gd]2 c2 [GB]2 | [Ac]2 [DB]2 A2 G2 | [DA]3 [EG] [DF]2 [^CE]2 | D2 E2 [DF]2 D2 | %9
 [DG]4 [DG]2 z2 | [FA]4 [FA]2 z2 | [GB]3 [Gc] [Gd]2 [Ac]2 | [GB]4 [FA]4 | [DG]6 |] %14
V:2
 D2 | x8 | x8 | x2 A2 x4 | x8 | x4 (GF) x2 | x4 (EF) G2 | x8 | D4 D2 x2 | x8 | x8 | x8 | x8 | x6 |] %14
V:3
 [G,B,]2 | [G,B,]2 [G,B,]2 [G,A,]2 [G,B,]2 | [D,C]2 [D,C]2 [D,B,]2 [D,D]2 | %3
 [G,D]2 [F,D]2 [G,D]2 [A,D]2 | [B,D]6 [G,B,]2 | C2 [B,D]2 [A,D]2 [G,D]2 | %6
 [F,D]2 [F,D]2 [D,C]2 [E,B,]2 | [F,A,]3 [G,B,] A,2 [A,,G,]2 | F,2 G,2 [D,A,]2 [D,C]2 | %9
 [G,,B,]4 [G,B,]2 z2 | [D,D]4 [D,D]2 z2 | [G,D]3 [E,C] [B,,B,]2 [C,E]2 | [D,D]4 (D2 C2) | %13
 [G,,B,]6 |] %14
V:4
 x2 | x8 | x8 | x8 | x8 | C2 x6 | x8 | x4 A,2 x2 | D,4 x4 | x8 | x8 | x8 | x4 D,4 | x6 |] %14

